;FLAVOR:Marlin
;TIME:4019
;Filament used: 2.04461m
;Layer height: 0.25
;MINX:81.281
;MINY:72.624
;MINZ:0.25
;MAXX:153.975
;MAXY:142.377
;MAXZ:10.5
;TARGET_MACHINE.NAME:Creality Ender-3
;POSTPROCESSED
;  [PauseAtHeight]
;Generated with Cura_SteamEngine 5.9.0
M140 S50
M105
M190 S50
M104 S200
M105
M109 S200
M82 ;absolute extrusion mode
; Ender 3 Custom Start G-code
G92 E0 ; Reset Extruder
G28 ; Home all axes
G1 Z2.0 F3000 ; Move Z Axis up little to prevent scratching of Heat Bed
G1 X0.1 Y20 Z0.3 F5000.0 ; Move to start position
G1 X0.1 Y200.0 Z0.3 F1500.0 E15 ; Draw the first line
G1 X0.4 Y200.0 Z0.3 F5000.0 ; Move to side a little
G1 X0.4 Y20 Z0.3 F1500.0 E30 ; Draw the second line
G92 E0 ; Reset Extruder
G1 Z2.0 F3000 ; Move Z Axis up little to prevent scratching of Heat Bed
G1 X5 Y20 Z0.3 F5000.0 ; Move over to prevent blob squish
G92 E0
G92 E0
G1 F2700 E-5
;LAYER_COUNT:42
;LAYER:0
M107
G0 F6000 X124.796 Y140.97 Z0.25
;TYPE:SKIRT
G1 F2700 E0
G1 F1200 X122.252 Y140.873 E0.10584
G1 X119.678 Y140.847 E0.21286
G1 X118.44 Y140.852 E0.26433
G1 X117.559 Y140.818 E0.30099
G1 X115.68 Y140.653 E0.37941
G1 X113.153 Y140.483 E0.48471
G1 X110.632 Y140.384 E0.5896
G1 X108.134 Y140.357 E0.69346
G1 X105.636 Y140.401 E0.79733
G1 X103.105 Y140.518 E0.90267
G1 X100.455 Y140.714 E1.01315
G1 X99.364 Y140.812 E1.05869
G1 X98.391 Y140.852 E1.09917
G1 X97.419 Y140.806 E1.13963
G1 X96.524 Y140.687 E1.17717
G1 X95.527 Y140.464 E1.21964
G1 X94.72 Y140.238 E1.25448
G1 X94.008 Y140.019 E1.28545
G1 X93.158 Y139.716 E1.32297
G1 X92.208 Y139.278 E1.36646
G1 X91.363 Y138.792 E1.40699
G1 X90.622 Y138.276 E1.44453
G1 X89.619 Y137.416 E1.49946
G1 X88.947 Y136.759 E1.53853
G1 X87.843 Y135.623 E1.60439
G1 X86.054 Y133.834 E1.70958
G1 X84.962 Y132.791 E1.77236
G1 X84.528 Y132.355 E1.79794
G1 X83.889 Y131.638 E1.83787
G1 X83.287 Y130.827 E1.87986
G1 X82.779 Y129.997 E1.92031
G1 X82.359 Y129.15 E1.95962
G1 X81.856 Y127.786 E2.02006
G1 X81.764 Y127.47 E2.03375
G1 X81.541 Y126.558 E2.07278
G1 X81.389 Y125.562 E2.11467
G1 X81.328 Y124.609 E2.15437
G1 X81.283 Y122.167 E2.25591
G1 X81.281 Y111.323 E2.70675
G1 X81.297 Y109.965 E2.76322
G1 X81.348 Y108.015 E2.84432
G1 X81.341 Y105.392 E2.95337
G1 X81.283 Y102.163 E3.08764
G1 X81.281 Y91.324 E3.53827
G1 X81.292 Y90.448 E3.57469
G1 X81.348 Y89.477 E3.61513
G1 X81.491 Y88.512 E3.65569
G1 X81.713 Y87.579 E3.69556
G1 X81.794 Y87.296 E3.7078
G1 X82.117 Y86.339 E3.74979
G1 X82.51 Y85.448 E3.79028
G1 X82.943 Y84.656 E3.8278
G1 X83.325 Y84.062 E3.85717
G1 X83.829 Y83.334 E3.89398
G1 X85.302 Y81.144 E4.00371
G1 X86.559 Y79.165 E4.10118
G1 X87.12 Y78.366 E4.14177
G1 X87.74 Y77.633 E4.18168
G1 X88.52 Y76.794 E4.22931
G1 X89.009 Y76.295 E4.25836
G1 X89.696 Y75.655 E4.29739
G1 X90.492 Y75.035 E4.33934
G1 X91.311 Y74.508 E4.37983
G1 X92.174 Y74.056 E4.42033
G1 X93.065 Y73.685 E4.46046
G1 X93.759 Y73.457 E4.49083
G1 X94.787 Y73.159 E4.53533
G1 X95.474 Y72.979 E4.56485
G1 X96.427 Y72.776 E4.60536
G1 X97.393 Y72.657 E4.64583
G1 X98.36 Y72.624 E4.68606
G1 X99.117 Y72.658 E4.71756
G1 X101.182 Y72.839 E4.80374
G1 X103.674 Y73.002 E4.90757
G1 X106.197 Y73.095 E5.01253
G1 X108.73 Y73.117 E5.11785
G1 X111.23 Y73.068 E5.22181
G1 X113.75 Y72.946 E5.3267
G1 X116.28 Y72.755 E5.43218
G1 X117.301 Y72.664 E5.4748
G1 X118.271 Y72.624 E5.51516
G1 X119.118 Y72.658 E5.5504
G1 X120.773 Y72.8 E5.61946
G1 X123.291 Y72.965 E5.72437
G1 X125.833 Y73.062 E5.83013
G1 X128.358 Y73.087 E5.93512
G1 X130.833 Y73.04 E6.03803
G1 X133.378 Y72.921 E6.14396
G1 X136.052 Y72.719 E6.25545
G1 X136.621 Y72.667 E6.2792
G1 X137.594 Y72.625 E6.31969
G1 X138.531 Y72.666 E6.35869
G1 X139.528 Y72.799 E6.4005
G1 X140.36 Y72.981 E6.43591
G1 X141.546 Y73.296 E6.48693
G1 X142.15 Y73.476 E6.51313
G1 X143.069 Y73.796 E6.55359
G1 X143.958 Y74.195 E6.5941
G1 X144.807 Y74.671 E6.63457
G1 X145.611 Y75.221 E6.67507
G1 X146.357 Y75.834 E6.71521
G1 X146.882 Y76.339 E6.7455
G1 X147.43 Y76.901 E6.77813
G1 X148.125 Y77.65 E6.82061
G1 X148.751 Y78.396 E6.8611
G1 X149.305 Y79.19 E6.90135
G1 X149.719 Y79.898 E6.93545
G1 X150.322 Y81.028 E6.9887
G1 X151.636 Y83.406 E7.10166
G1 X152.4 Y84.736 E7.16542
G1 X152.846 Y85.602 E7.20592
G1 X153.188 Y86.437 E7.24344
G1 X153.406 Y87.1 E7.27245
G1 X153.533 Y87.537 E7.29137
G1 X153.755 Y88.448 E7.33036
G1 X153.906 Y89.449 E7.37244
G1 X153.966 Y90.437 E7.4136
G1 X153.975 Y91.164 E7.44382
G1 X153.972 Y93.322 E7.53354
G1 X153.958 Y94.257 E7.57242
G1 X153.902 Y96.182 E7.65249
G1 X153.899 Y98.691 E7.7568
G1 X153.96 Y100.928 E7.84984
G1 X153.975 Y102.1 E7.89857
G1 X153.972 Y104.176 E7.98488
G1 X153.941 Y105.9 E8.05656
G1 X153.932 Y108.521 E8.16553
G1 X153.95 Y109.186 E8.19319
G1 X153.975 Y111.164 E8.27543
G1 X153.972 Y113.341 E8.36594
G1 X153.957 Y114.266 E8.4044
G1 X153.901 Y116.214 E8.48543
G1 X153.899 Y118.729 E8.58999
G1 X153.961 Y120.999 E8.6844
G1 X153.975 Y122.13 E8.73142
G1 X153.967 Y124.475 E8.82892
G1 X153.924 Y125.377 E8.86646
G1 X153.781 Y126.414 E8.90998
G1 X153.555 Y127.385 E8.95143
G1 X153.425 Y127.845 E8.9713
G1 X153.116 Y128.769 E9.01181
G1 X152.746 Y129.624 E9.05054
G1 X152.444 Y130.204 E9.07773
G1 X151.915 Y131.142 E9.1225
G1 X151.531 Y131.8 E9.15418
G1 X150.268 Y134.114 E9.26378
G1 X149.728 Y135.135 E9.3118
G1 X149.233 Y135.974 E9.3523
G1 X148.685 Y136.741 E9.39149
G1 X147.914 Y137.627 E9.44032
G1 X147.144 Y138.413 E9.48606
G1 X146.641 Y138.9 E9.51517
G1 X145.91 Y139.546 E9.55573
G1 X145.126 Y140.121 E9.59615
G1 X144.294 Y140.628 E9.63666
G1 X143.406 Y141.063 E9.67777
G1 X142.152 Y141.523 E9.7333
G1 X141.088 Y141.834 E9.77939
G1 X140.375 Y142.021 E9.81003
G1 X139.422 Y142.225 E9.85055
G1 X138.457 Y142.344 E9.89098
G1 X137.555 Y142.377 E9.9285
G1 X136.519 Y142.324 E9.97163
G1 X135.793 Y142.228 E10.00208
G1 X134.891 Y142.076 E10.04011
G1 X132.295 Y141.681 E10.14928
G1 X129.767 Y141.368 E10.25518
G1 X127.322 Y141.137 E10.35729
G1 X124.796 Y140.97 E10.46254
G0 F6000 X124.811 Y140.57
G1 F1200 X122.267 Y140.473 E10.56838
G1 X119.68 Y140.447 E10.67594
G1 X118.455 Y140.452 E10.72687
G1 X117.574 Y140.418 E10.76352
G1 X115.707 Y140.254 E10.84144
G1 X113.169 Y140.083 E10.9472
G1 X110.648 Y139.984 E11.05209
G1 X108.131 Y139.957 E11.15674
G1 X105.618 Y140.001 E11.26124
G1 X103.087 Y140.118 E11.36658
G1 X100.425 Y140.316 E11.47756
G1 X99.347 Y140.412 E11.52255
G1 X98.409 Y140.452 E11.56158
G1 X97.472 Y140.409 E11.60058
G1 X96.577 Y140.29 E11.63812
G1 X95.635 Y140.079 E11.67825
G1 X94.838 Y139.856 E11.71266
G1 X94.142 Y139.642 E11.74293
G1 X93.292 Y139.339 E11.78045
G1 X92.407 Y138.931 E11.82097
G1 X91.592 Y138.464 E11.86002
G1 X90.851 Y137.948 E11.89756
G1 X89.899 Y137.13 E11.94974
G1 X89.234 Y136.48 E11.9884
G1 X88.13 Y135.344 E12.05426
G1 X86.337 Y133.551 E12.15968
G1 X85.245 Y132.508 E12.22247
G1 X84.827 Y132.089 E12.24707
G1 X84.188 Y131.372 E12.287
G1 X83.628 Y130.618 E12.32605
G1 X83.137 Y129.818 E12.36507
G1 X82.734 Y129.011 E12.40258
G1 X82.24 Y127.674 E12.46184
G1 X82.153 Y127.375 E12.47478
G1 X81.93 Y126.463 E12.51382
G1 X81.788 Y125.536 E12.55281
G1 X81.728 Y124.602 E12.59172
G1 X81.683 Y122.167 E12.69297
G1 X81.681 Y111.328 E13.1436
G1 X81.697 Y109.975 E13.19986
G1 X81.748 Y108.025 E13.28096
G1 X81.741 Y105.391 E13.39047
G1 X81.683 Y102.163 E13.52469
G1 X81.681 Y91.329 E13.97512
G1 X81.691 Y90.471 E14.01079
G1 X81.744 Y89.535 E14.04977
G1 X81.88 Y88.605 E14.08885
G1 X82.098 Y87.689 E14.12799
G1 X82.179 Y87.406 E14.14023
G1 X82.483 Y86.5 E14.17996
G1 X82.861 Y85.64 E14.21902
G1 X83.294 Y84.848 E14.25654
G1 X83.654 Y84.29 E14.28415
G1 X84.158 Y83.562 E14.32096
G1 X85.634 Y81.367 E14.43094
G1 X86.887 Y79.394 E14.52811
G1 X87.426 Y78.624 E14.56718
G1 X88.033 Y77.905 E14.6063
G1 X88.805 Y77.074 E14.65346
G1 X89.282 Y76.588 E14.68177
G1 X89.969 Y75.948 E14.72081
G1 X90.709 Y75.371 E14.75982
G1 X91.497 Y74.862 E14.79882
G1 X92.328 Y74.425 E14.83786
G1 X93.19 Y74.065 E14.8767
G1 X93.87 Y73.841 E14.90646
G1 X94.889 Y73.546 E14.95057
G1 X95.558 Y73.37 E14.97933
G1 X96.476 Y73.173 E15.01836
G1 X97.407 Y73.057 E15.05737
G1 X98.342 Y73.024 E15.09626
G1 X99.085 Y73.057 E15.12718
G1 X100.05 Y73.135 E15.16744
G1 X101.156 Y73.238 E15.21362
G1 X103.659 Y73.402 E15.3179
G1 X106.182 Y73.495 E15.42287
G1 X108.735 Y73.517 E15.52901
G1 X111.249 Y73.468 E15.63355
G1 X113.769 Y73.346 E15.73844
G1 X116.31 Y73.154 E15.84439
G1 X117.318 Y73.064 E15.88646
G1 X118.255 Y73.024 E15.92545
G1 X119.084 Y73.057 E15.95995
G1 X120.739 Y73.198 E16.029
G1 X123.276 Y73.365 E16.13471
G1 X125.818 Y73.462 E16.24047
G1 X128.362 Y73.487 E16.34624
G1 X130.852 Y73.44 E16.44978
G1 X133.397 Y73.321 E16.55571
G1 X136.082 Y73.118 E16.66765
G1 X136.639 Y73.067 E16.69091
G1 X137.577 Y73.025 E16.72995
G1 X138.514 Y73.066 E16.76894
G1 X139.443 Y73.19 E16.8079
G1 X140.257 Y73.368 E16.84255
G1 X141.432 Y73.68 E16.89309
G1 X142.019 Y73.854 E16.91854
G1 X142.906 Y74.161 E16.95757
G1 X143.763 Y74.544 E16.99659
G1 X144.582 Y75.002 E17.03561
G1 X145.357 Y75.53 E17.07459
G1 X146.08 Y76.123 E17.11347
G1 X146.596 Y76.618 E17.1432
G1 X147.137 Y77.173 E17.17542
G1 X147.819 Y77.907 E17.21708
G1 X148.423 Y78.625 E17.25609
G1 X148.96 Y79.392 E17.29501
G1 X149.366 Y80.086 E17.32844
G1 X149.972 Y81.221 E17.38193
G1 X151.289 Y83.605 E17.49517
G1 X152.045 Y84.92 E17.55823
G1 X152.476 Y85.754 E17.59726
G1 X152.818 Y86.589 E17.63477
G1 X153.022 Y87.212 E17.66203
G1 X153.144 Y87.632 E17.68021
G1 X153.366 Y88.543 E17.71919
G1 X153.507 Y89.473 E17.7583
G1 X153.566 Y90.442 E17.79866
G1 X153.575 Y91.163 E17.82864
G1 X153.572 Y93.316 E17.91815
G1 X153.558 Y94.245 E17.95678
G1 X153.502 Y96.17 E18.03685
G1 X153.499 Y98.691 E18.14166
G1 X153.56 Y100.933 E18.2349
G1 X153.575 Y102.099 E18.28338
G1 X153.572 Y104.169 E18.36944
G1 X153.541 Y105.893 E18.44113
G1 X153.532 Y108.52 E18.55035
G1 X153.55 Y109.191 E18.57826
G1 X153.575 Y111.163 E18.66025
G1 X153.572 Y113.334 E18.75051
G1 X153.557 Y114.255 E18.7888
G1 X153.501 Y116.203 E18.86983
G1 X153.499 Y118.729 E18.97485
G1 X153.561 Y121.004 E19.06946
G1 X153.575 Y122.129 E19.11624
G1 X153.567 Y124.456 E19.21299
G1 X153.524 Y125.358 E19.25053
G1 X153.391 Y126.324 E19.29107
G1 X153.17 Y127.276 E19.3317
G1 X153.045 Y127.719 E19.35084
G1 X152.749 Y128.61 E19.38987
G1 X152.391 Y129.439 E19.42742
G1 X152.089 Y130.019 E19.4546
G1 X151.57 Y130.94 E19.49855
G1 X151.18 Y131.608 E19.53071
G1 X149.917 Y133.922 E19.64031
G1 X149.383 Y134.932 E19.68781
G1 X148.908 Y135.741 E19.72682
G1 X148.36 Y136.508 E19.76601
G1 X147.628 Y137.347 E19.8123
G1 X146.866 Y138.126 E19.8576
G1 X146.376 Y138.601 E19.88598
G1 X145.673 Y139.224 E19.92503
G1 X144.918 Y139.78 E19.96401
G1 X144.117 Y140.269 E20.00303
G1 X143.268 Y140.687 E20.04237
G1 X142.014 Y141.147 E20.0979
G1 X140.986 Y141.447 E20.14243
G1 X140.291 Y141.63 E20.17231
G1 X139.373 Y141.828 E20.21135
G1 X138.442 Y141.944 E20.25036
G1 X137.54 Y141.977 E20.28788
G1 X136.571 Y141.927 E20.32822
G1 X135.859 Y141.833 E20.35808
G1 X134.957 Y141.682 E20.3961
G1 X132.344 Y141.284 E20.50599
G1 X129.816 Y140.971 E20.6119
G1 X127.353 Y140.738 E20.71475
G1 X124.811 Y140.57 E20.82067
G0 F6000 X124.826 Y140.17
G1 F1200 X122.282 Y140.073 E20.92651
G1 X119.682 Y140.047 E21.03461
G1 X118.47 Y140.052 E21.085
G1 X117.607 Y140.019 E21.12091
G1 X116.497 Y139.928 E21.16721
G1 X115.736 Y139.855 E21.19899
G1 X113.185 Y139.683 E21.30529
G1 X110.664 Y139.584 E21.41019
G1 X108.128 Y139.557 E21.51563
G1 X105.6 Y139.601 E21.62074
G1 X103.069 Y139.718 E21.72608
G1 X100.395 Y139.917 E21.83756
G1 X99.329 Y140.012 E21.88206
G1 X98.427 Y140.052 E21.9196
G1 X97.525 Y140.012 E21.95713
G1 X96.63 Y139.893 E21.99467
G1 X95.743 Y139.694 E22.03246
G1 X94.956 Y139.474 E22.06644
G1 X94.276 Y139.265 E22.09601
G1 X93.426 Y138.962 E22.13353
G1 X92.605 Y138.584 E22.17111
G1 X91.821 Y138.136 E22.20865
G1 X91.08 Y137.62 E22.24619
G1 X90.179 Y136.844 E22.29563
G1 X89.521 Y136.201 E22.33388
G1 X88.417 Y135.065 E22.39974
G1 X86.62 Y133.268 E22.50539
G1 X85.528 Y132.225 E22.56817
G1 X85.11 Y131.806 E22.59278
G1 X84.509 Y131.133 E22.63029
G1 X83.969 Y130.408 E22.66788
G1 X83.495 Y129.639 E22.70543
G1 X83.092 Y128.832 E22.74294
G1 X82.624 Y127.561 E22.79925
G1 X82.541 Y127.279 E22.81147
G1 X82.325 Y126.402 E22.84902
G1 X82.187 Y125.51 E22.88655
G1 X82.128 Y124.595 E22.92467
G1 X82.083 Y122.167 E23.02563
G1 X82.081 Y111.333 E23.47605
G1 X82.097 Y109.985 E23.5321
G1 X82.148 Y108.035 E23.6132
G1 X82.141 Y105.39 E23.72317
G1 X82.083 Y102.163 E23.85735
G1 X82.081 Y91.333 E24.30761
G1 X82.09 Y90.493 E24.34254
G1 X82.14 Y89.592 E24.38005
G1 X82.269 Y88.698 E24.41761
G1 X82.483 Y87.799 E24.45603
G1 X82.564 Y87.516 E24.46826
G1 X82.85 Y86.66 E24.50579
G1 X83.212 Y85.832 E24.54336
G1 X83.645 Y85.04 E24.58088
G1 X83.983 Y84.518 E24.60674
G1 X84.487 Y83.79 E24.64355
G1 X85.966 Y81.59 E24.75376
G1 X87.215 Y79.623 E24.85064
G1 X87.732 Y78.882 E24.8882
G1 X88.326 Y78.177 E24.92653
G1 X89.091 Y77.354 E24.97324
G1 X89.555 Y76.88 E25.00082
G1 X90.215 Y76.263 E25.03838
G1 X90.926 Y75.707 E25.07591
G1 X91.684 Y75.216 E25.11345
G1 X92.483 Y74.794 E25.15102
G1 X93.316 Y74.445 E25.18857
G1 X93.981 Y74.225 E25.21769
G1 X94.991 Y73.933 E25.2614
G1 X95.643 Y73.761 E25.28944
G1 X96.526 Y73.57 E25.327
G1 X97.422 Y73.457 E25.36454
G1 X98.324 Y73.424 E25.40207
G1 X99.053 Y73.456 E25.43241
G1 X100.013 Y73.533 E25.47245
G1 X101.13 Y73.637 E25.51909
G1 X103.644 Y73.802 E25.62383
G1 X106.167 Y73.895 E25.7288
G1 X108.74 Y73.917 E25.83577
G1 X111.268 Y73.868 E25.9409
G1 X113.788 Y73.746 E26.04579
G1 X116.34 Y73.553 E26.15219
G1 X117.336 Y73.464 E26.19376
G1 X118.239 Y73.424 E26.23134
G1 X119.05 Y73.456 E26.26509
G1 X120.705 Y73.596 E26.33414
G1 X123.261 Y73.765 E26.44064
G1 X125.803 Y73.862 E26.5464
G1 X128.366 Y73.887 E26.65296
G1 X130.871 Y73.84 E26.75713
G1 X133.416 Y73.721 E26.86305
G1 X136.112 Y73.517 E26.97546
G1 X136.658 Y73.467 E26.99825
G1 X137.56 Y73.425 E27.03579
G1 X138.462 Y73.463 E27.07333
G1 X139.358 Y73.581 E27.1109
G1 X140.154 Y73.755 E27.14478
G1 X141.319 Y74.064 E27.19489
G1 X141.889 Y74.232 E27.21959
G1 X142.743 Y74.526 E27.25714
G1 X143.568 Y74.893 E27.29468
G1 X144.357 Y75.333 E27.33224
G1 X145.104 Y75.84 E27.36978
G1 X145.803 Y76.412 E27.40733
G1 X146.31 Y76.897 E27.4365
G1 X146.844 Y77.445 E27.46831
G1 X147.513 Y78.165 E27.50917
G1 X148.096 Y78.855 E27.54672
G1 X148.615 Y79.594 E27.58427
G1 X149.013 Y80.275 E27.61706
G1 X149.62 Y81.41 E27.67057
G1 X150.942 Y83.804 E27.78427
G1 X151.69 Y85.104 E27.84663
G1 X152.106 Y85.906 E27.88419
G1 X152.448 Y86.741 E27.9217
G1 X152.638 Y87.324 E27.9472
G1 X152.756 Y87.727 E27.96466
G1 X152.971 Y88.604 E28.0022
G1 X153.108 Y89.497 E28.03976
G1 X153.166 Y90.447 E28.07933
G1 X153.175 Y91.162 E28.10906
G1 X153.172 Y93.31 E28.19836
G1 X153.158 Y94.233 E28.23674
G1 X153.102 Y96.158 E28.3168
G1 X153.099 Y98.691 E28.42211
G1 X153.16 Y100.938 E28.51557
G1 X153.175 Y102.098 E28.5638
G1 X153.172 Y104.162 E28.64961
G1 X153.141 Y105.886 E28.7213
G1 X153.132 Y108.519 E28.83077
G1 X153.15 Y109.196 E28.85892
G1 X153.175 Y111.162 E28.94067
G1 X153.172 Y113.327 E29.03068
G1 X153.157 Y114.244 E29.06881
G1 X153.101 Y116.192 E29.14983
G1 X153.099 Y118.729 E29.2553
G1 X153.161 Y121.009 E29.35013
G1 X153.175 Y122.128 E29.39666
G1 X153.167 Y124.437 E29.49265
G1 X153.124 Y125.339 E29.5302
G1 X153.001 Y126.234 E29.56776
G1 X152.785 Y127.168 E29.60761
G1 X152.665 Y127.594 E29.62601
G1 X152.382 Y128.451 E29.66354
G1 X152.024 Y129.28 E29.70108
G1 X151.74 Y129.823 E29.72655
G1 X151.225 Y130.738 E29.77021
G1 X150.829 Y131.416 E29.80285
G1 X149.566 Y133.73 E29.91245
G1 X149.038 Y134.73 E29.95947
G1 X148.582 Y135.509 E29.997
G1 X148.058 Y136.245 E30.03456
G1 X147.342 Y137.067 E30.07988
G1 X146.587 Y137.839 E30.12477
G1 X146.11 Y138.302 E30.15241
G1 X145.435 Y138.902 E30.18996
G1 X144.709 Y139.439 E30.2275
G1 X143.939 Y139.911 E30.26505
G1 X143.13 Y140.312 E30.30259
G1 X141.902 Y140.763 E30.35698
G1 X140.884 Y141.06 E30.40107
G1 X140.206 Y141.239 E30.43022
G1 X139.323 Y141.431 E30.46779
G1 X138.427 Y141.544 E30.50533
G1 X137.525 Y141.577 E30.54286
G1 X136.623 Y141.53 E30.58041
G1 X135.925 Y141.438 E30.60968
G1 X135.023 Y141.288 E30.6477
G1 X132.393 Y140.887 E30.75831
